packages/core/src/svgs/tokens/mono/XDC.svg

<svg width="24" height="24" viewBox="0 0 24 24" fill="none" xmlns="http://www.w3.org/2000/svg">
<path d="M21.9749 11.0311C19.675 -2.26256 2.31249 0.312438 2 11.0311L3.63748 11.8749C3.63748 11.8749 3.10624 12.1874 2 12.9123C4.01249 25.9623 21.0936 24.0624 22 12.8937C21.4418 12.5504 20.8813 12.2109 20.3187 11.8749L21.9749 11.0311ZM13.4125 15.6811L11.7812 12.8686L10.1438 15.6811L8.88123 15.5873L11.2499 11.6061L9.125 8.18116L10.4063 8.06866L11.9062 10.6124L13.4188 8.17491L14.6063 8.19991L12.6437 11.5874L14.8311 15.6374L13.4188 15.6811H13.4125Z" fill="white"/>
<path d="M21.1564 10.5002C18.0376 -1.31235 3.76894 1.87515 2.79395 10.5002L5.23144 11.8751L2.79395 13.4251C4.91895 24.7938 20.3189 22.6001 21.1564 13.4001C19.6126 12.4252 18.6813 11.8501 18.6813 11.8501C18.6813 11.8501 20.7813 10.725 21.1564 10.5002ZM13.419 15.7001L11.7814 12.8876L10.1189 15.7001L8.85642 15.6126L11.2315 11.6314L9.10639 8.20012L10.3877 8.09387L11.8877 10.6375L13.3939 8.20012L14.5877 8.22512L12.6252 11.6063L14.8376 15.6564L13.4252 15.7001H13.419Z" fill="white"/>
</svg>

<svg xmlns="http://www.w3.org/2000/svg" width="24" height="24" fill="none" viewBox="0 0 24 24">
    <path fill="#fff" d="M21.975 11.031C19.675-2.263 2.312.312 2 11.031l1.637.844s-.53.312-1.637 1.037c2.012 13.05 19.094 11.15 20-.018q-.838-.515-1.681-1.02zm-8.563 4.65-1.63-2.812-1.638 2.812-1.263-.094 2.369-3.98L9.125 8.18l1.281-.112 1.5 2.543 1.513-2.437 1.187.025-1.962 3.387 2.187 4.05-1.412.044z"/>
    <path fill="#fff" d="M21.156 10.5C18.038-1.312 3.77 1.875 2.794 10.5l2.437 1.375-2.437 1.55C4.919 24.794 20.319 22.6 21.156 13.4c-1.543-.975-2.475-1.55-2.475-1.55s2.1-1.125 2.475-1.35m-7.737 5.2-1.638-2.812L10.12 15.7l-1.263-.087 2.376-3.982-2.126-3.43 1.282-.107 1.5 2.544L13.394 8.2l1.194.025-1.963 3.381 2.213 4.05-1.413.044z"/>
</svg>
